assets/svg/1F55B.svg

<svg xmlns="http://www.w3.org/2000/svg" viewBox="0 0 64 64" enable-background="new 0 0 64 64"><path fill="#e0e7ec" d="m61.38 31.868c0 16.303-13.216 29.519-29.519 29.519-16.304 0-29.521-13.216-29.521-29.519 0-16.306 13.216-29.522 29.521-29.522 16.303 0 29.519 13.216 29.519 29.522"/><path fill="#d1d7da" d="m52.08 46.977c-16.305 0-29.521-13.216-29.521-29.522 0-5.42 1.488-10.484 4.04-14.85-13.726 2.536-24.13 14.547-24.13 29.01 0 16.303 13.216 29.519 29.521 29.519 10.884 0 20.363-5.903 25.485-14.669-1.751.323-3.549.516-5.394.516"/><path fill="#98a9b4" d="m31.868 0c-17.571 0-31.868 14.298-31.868 31.868 0 17.571 14.297 31.868 31.868 31.868s31.866-14.297 31.866-31.868c0-17.57-14.295-31.868-31.866-31.868m0 57.53c-14.15 0-25.664-11.515-25.664-25.664 0-14.15 11.513-25.664 25.664-25.664 14.15 0 25.662 11.513 25.662 25.664 0 14.15-11.512 25.664-25.662 25.664"/><path fill="#85939c" d="m29.997 10.994c0-1.432.844-2.593 1.883-2.593l0 0c1.037 0 1.883 1.162 1.883 2.593v20.996c0 1.434-.846 2.595-1.883 2.595l0 0c-1.039 0-1.883-1.161-1.883-2.595v-20.996"/><path fill="#788288" d="m33.751 31.989c0 1.434-.842 2.595-1.881 2.595l0 0c-1.039 0-1.885-1.163-1.885-2.595l-.004-15.194c0-1.43.846-2.593 1.881-2.591l0 0c1.039-.002 1.885 1.162 1.885 2.589l.004 15.196"/></svg>

<?xml version="1.0" encoding="UTF-8" standalone="no"?>
<!-- Generator: Adobe Illustrator 16.0.0, SVG Export Plug-In . SVG Version: 6.00 Build 0)  -->

<svg
   xmlns:dc="http://purl.org/dc/elements/1.1/"
   xmlns:cc="http://creativecommons.org/ns#"
   xmlns:rdf="http://www.w3.org/1999/02/22-rdf-syntax-ns#"
   xmlns:svg="http://www.w3.org/2000/svg"
   xmlns="http://www.w3.org/2000/svg"
   xmlns:sodipodi="http://sodipodi.sourceforge.net/DTD/sodipodi-0.dtd"
   xmlns:inkscape="http://www.inkscape.org/namespaces/inkscape"
   version="1.1"
   id="Layer_1"
   x="0px"
   y="0px"
   width="64px"
   height="64px"
   viewBox="0 0 64 64"
   enable-background="new 0 0 64 64"
   xml:space="preserve"
   inkscape:version="0.48.5 r10040"
   sodipodi:docname="1F55B.svg"
   inkscape:export-filename="D:\TESTINGEMOJI\SVGTEST\1F55B.png"
   inkscape:export-xdpi="90"
   inkscape:export-ydpi="90"><metadata
   id="metadata4431"><rdf:RDF><cc:Work
       rdf:about=""><dc:format>image/svg+xml</dc:format><dc:type
         rdf:resource="http://purl.org/dc/dcmitype/StillImage" /><dc:title></dc:title></cc:Work></rdf:RDF></metadata><defs
   id="defs4429" /><sodipodi:namedview
   pagecolor="#ffffff"
   bordercolor="#666666"
   borderopacity="1"
   objecttolerance="10"
   gridtolerance="10"
   guidetolerance="10"
   inkscape:pageopacity="0"
   inkscape:pageshadow="2"
   inkscape:window-width="640"
   inkscape:window-height="480"
   id="namedview4427"
   showgrid="false"
   inkscape:zoom="3.6875"
   inkscape:cx="32"
   inkscape:cy="32"
   inkscape:window-x="522"
   inkscape:window-y="301"
   inkscape:window-maximized="0"
   inkscape:current-layer="Layer_1" />
<g
   id="g4415">
	<path
   fill="#E0E7EC"
   d="M61.385,31.868c0,16.303-13.216,29.519-29.519,29.519c-16.304,0-29.521-13.216-29.521-29.519   c0-16.306,13.216-29.522,29.521-29.522C48.169,2.346,61.385,15.562,61.385,31.868z"
   id="path4417" />
	<path
   fill="#D1D7DA"
   d="M52.082,46.977c-16.305,0-29.521-13.216-29.521-29.522c0-5.42,1.488-10.484,4.036-14.85   C12.871,5.141,2.47,17.152,2.47,31.611c0,16.303,13.216,29.519,29.521,29.519c10.884,0,20.363-5.903,25.485-14.669   C55.725,46.784,53.927,46.977,52.082,46.977z"
   id="path4419" />
	<path
   fill="#98A9B4"
   d="M31.868,0C14.297,0,0,14.298,0,31.868c0,17.571,14.297,31.868,31.868,31.868s31.866-14.297,31.866-31.868   C63.734,14.298,49.439,0,31.868,0z M31.868,57.532c-14.151,0-25.664-11.515-25.664-25.664c0-14.151,11.513-25.664,25.664-25.664   c14.149,0,25.662,11.513,25.662,25.664C57.53,46.018,46.018,57.532,31.868,57.532z"
   id="path4421" />
	<path
   fill="#85939C"
   d="M29.997,10.994c0-1.432,0.844-2.593,1.883-2.593l0,0c1.037,0,1.883,1.162,1.883,2.593v20.996   c0,1.434-0.846,2.595-1.883,2.595l0,0c-1.039,0-1.883-1.161-1.883-2.595V10.994z"
   id="path4423" />
	<path
   fill="#788288"
   d="M33.751,31.989c0,1.434-0.842,2.595-1.881,2.595l0,0c-1.039,0-1.885-1.163-1.885-2.595l-0.004-15.194   c0-1.43,0.846-2.593,1.881-2.591l0,0c1.039-0.002,1.885,1.162,1.885,2.589L33.751,31.989z"
   id="path4425" />
</g>
</svg>
